X: 34366
T: Rêve Agité
R: reel
M: 4/4
K: Aminor
a3g eede|~A2de dcde|cAAB ~G3A|(3Bcd ed cAce|
a3g eede|~A2de dcde|cAAB ~G3A|(3Bcd ed cAAB||
cA (3Bcd edeg|~a3g edcd|Adcd AG~G2|
cA (3Bcd edeg|~a3g edcA|DEGB BAAB|
c2AB cdeg|~a3g edcd|Adcd AG~G2|
cA (3Bcd edeg|~a3g edcB|c3B ABce||

